svgs/thin/chalkboard.svg

<svg xmlns="http://www.w3.org/2000/svg" viewBox="0 0 576 512"><!--! Font Awesome Pro 6.6.0 by @fontawesome - https://fontawesome.com License - https://fontawesome.com/license (Commercial License) Copyright 2024 Fonticons, Inc. --><path d="M80 48C62.3 48 48 62.3 48 80l0 352-16 0L32 80c0-26.5 21.5-48 48-48l416 0c26.5 0 48 21.5 48 48l0 352-16 0 0-352c0-17.7-14.3-32-32-32L80 48zM0 472c0-4.4 3.6-8 8-8l248 0 0-40c0-22.1 17.9-40 40-40l80 0c22.1 0 40 17.9 40 40l0 40 152 0c4.4 0 8 3.6 8 8s-3.6 8-8 8l-152 0-8 0-144 0-8 0L8 480c-4.4 0-8-3.6-8-8zm400-8l0-40c0-13.3-10.7-24-24-24l-80 0c-13.3 0-24 10.7-24 24l0 40 128 0z"/></svg>

<svg xmlns="http://www.w3.org/2000/svg" viewBox="0 0 576 512"><!--! Font Awesome Pro 6.4.2 by @fontawesome - https://fontawesome.com License - https://fontawesome.com/license (Commercial License) Copyright 2023 Fonticons, Inc. --><path d="M80 48C62.3 48 48 62.3 48 80V432H32V80c0-26.5 21.5-48 48-48H496c26.5 0 48 21.5 48 48V432H528V80c0-17.7-14.3-32-32-32H80zM0 472c0-4.4 3.6-8 8-8H256V424c0-22.1 17.9-40 40-40h80c22.1 0 40 17.9 40 40v40H568c4.4 0 8 3.6 8 8s-3.6 8-8 8H416h-8H264h-8H8c-4.4 0-8-3.6-8-8zm400-8V424c0-13.3-10.7-24-24-24H296c-13.3 0-24 10.7-24 24v40H400z"/></svg>
